X:1
T:Danza Rusa (Trepak)
T:Piano II PS
T:Copyright © 
T:Copyright © 
T:Copyright © 
T:Copyright © 
Z:Copyright ©
L:1/8
Q:1/4=160
M:2/4
K:G
V:1 treble nm="Piano II PS" snm="Pno."
V:1
|:"^A" gg/f/ gg | ed ce | dd/^c/ dd | BA GB | AA GG | FF AA | BB GG | AG A z |"^B" gg/f/ gg | %9
w: Sol sol fa# sol sol|mi re do mi|re re do# re re|si la sol si|la la sol sol|fa# fa# la la|si si sol sol|la sol la|Sol sol fa# sol sol|
 ed ce | dd/^c/ dd | BA GB | AA GG | FF AA | BB GG | AG A z :|[K:D]"^C" dd dd | ee ee | ee ee | %19
w: mi re do mi|re re do# re re|si la sol si|la la sol sol|fa# fa# la la|si si sol sol|la sol la|Re re re re|mi mi mi mi|mi mi mi mi|
 ff ff | gg ff | ee dd | cc BB | AA cc |"^D" dd dd | ee ee | ee ee | ff ff | gg ff | ee dd | %30
w: fa# fa# fa# fa#|sol sol fa# fa#|mi mi re re|do# do# si si|la la do# do#|Re re re re|mi mi mi mi|mi mi mi mi|fa# fa# fa# fa#|sol sol fa# fa#|mi mi re re|
 cc BB | AA A z |"^E" z G Gc | cd d z | z G Gc | cd d z | z G G z | z G GA | =cA cA | =cA dd || %40
w: do# do# si si|la la la|sol sol do#|do# re re|sol sol do#|do# re re|sol sol|sol sol la|do la do la|do la re re|
[K:G]"^F" gg/f/ gg | ed ce | dd/^c/ dd | BA GB | AA GG | FF AA | BB GG | AG A z |"^G" gg/f/ gg | %49
w: Sol sol fa# sol sol|mi re do mi|re re do# re re|si la sol si|la la sol sol|fa# fa# la la|si si sol sol|la sol la|Sol sol fa# sol sol|
 ed ce | dd/^c/ dd | BA GB | AA GG | FF AA | BB AA | GG BB |"^H" AA GG | FF AA | BB AA | GG BB | %60
w: mi re do mi|re re do# re re|si la sol si|la la sol sol|fa# fa# la la|si si la la|sol sol si si|la la sol sol|fa# fa# la la|si si la la|sol sol si si|
 AA cc | BB GG | AA cc | BB GG | AA GG | AA GG | AA GG | Ad g z |] %68
w: la la do do|si si sol sol|la la do do|si si sol sol|la la sol sol|la la sol sol|la la sol sol|la re sol|

